X:805
T:The tar road to Sligo
T:Coleman's
P:See also: The races at Carrick
R:Jig
O:Ireland
B:Irish Traditional Music Session Tunes
S:Irish Traditional Music Session Tunes (mostly)
Z:Transcription, chords:Mike Long
M:6/8
L:1/8
K:D
e|\
"D"fdB "G"Bcd|"A"ecA BAG|"D"FAA ABc|"G"dcd "A"efg|\
"D"fdB "G"Bcd|"A"ecA BAG|"D"FAA "A"Aag|"D"fdc d2:|
|:B|\
"D"Aff Aff|"G"gfg "A"efg|"D"afd dcd|"G"Bed "A"cBA|\
"D"Aff Aff|"G"gfg "A"efg|"D"afd "G"bge|"A"edc "D"d2B|
"D"Aff Aff|"G"gfg "A"efg|"D"afd dcd|"G"Bed "A"cBA|\
"D"fdB "A"gec|"D"afd "G"bge|"D"aga "G"bge|"A"edc "D"d2|]
